X:1
T:Title
%%score 1 2 3
L:1/8
M:3/2
K:F
V:1 treble-8 nm="Part_1"
V:2 treble-8 nm="Part_2"
V:3 treble-8 nm="Part_3"
V:1
 f4 f4 f4 | f2 e2 c4 f4 | g4 a6 g2 | _b2 a2 g6 f2 | f6 g2 e2 d2 | f8 z4 | g4 a4 a2 g2 | e4 f8 | %8
 e4 d6 c2 | A4 G8 | F4 z2 B4 A2 | c4 d2 f2 e2 d2- | dc d2 e2 A2 BA B2 | c12 | z12 | c8 c2 B2 | %16
 _A4 G6 F2 | F4 z4 f4 | f4 g6 f2 | f6 e4 d2 | d2 c2 A4 z4 | F4 A4 A2 B2 | c4 f8 | g4 a6 g2 | %24
 e4 d2 f2 e2 c2- | c2 d2 c2 f3 d e2 | f12 |] %27
V:2
[K:Bb] F12 | A8 A4 | B4 c8 | B8 A4- | A4 G8 | F12 | c12- | c4 d8 | c4 B8 | c4 d6 c2 | A4 G8 | %11
 F8 G4 | E4 D8 | C12- | C12 | F12- | F4 E8 | _A8 F4 | A4 B8 | A4 G8 | F12 | c12 | F8 D4 | %23
 =E4 F4 C4- | C4 D4 C4 | F4 A2 F2 G4 | F12 |] %27
V:3
[K:Bb] c8 A4 | F8 c2 B2 | G4 F8 | G4 E4 F4- | F4 C8 | z4 c8 | C4 F6 E2 | C4 B,8 | C4 G8 | %9
 F4 z2 B4 A2 | c4 d6 c2 | A8 G4- | G4 F8 | G8 =E4 | F4 G6 F2 | _A8 F4 | c6 =B4 A2 | c8 c4 | F4 E8 | %19
 F4 C8 | z4 c4 d2 c2 | A4 G8 | A8 A2 B2 | G4 c8 | c4 A2 F2 G4 | A2 F4 D2 C4 | c12 |] %27

